X: 780
P: Longways for as many as will
M: 3/4
L: 1/8
K: A
V: 1
cB |\
cd |\
e2 (dc)(BA) | e2 (fe)(dc) | B4 cd |\
e2 c2 A2 | AGABcd | e4 (f/g/a) |
e2 (dc)(BA) | f2 (ed)(cd) | B4 AB |\
c2 (dc)(BA) | d2 B3 A | A4 |]
V: 2 clef=bass middle=d
a2 |\
c4 d2 | c2 d2 A2 | e4 a2 |\
c4 d2 | c2 d2 e2 | A4 |] a2 |\
c2 e2 a2 | c2 d2 A2 | e4 a2 |\
c2 e2 a2 |
d4 cB | A4 d2 |\
c2 e2 a2 | d2 A2 a2 | e2E2 cB |\

